X:14169
T:Reel,A. GS.110
M:2/2
L:1/8
Q:200
S:George Spencer m/s, Leeds,1831
R:Reel
O:England
A:Leeds
N:'end of the Reel' written at the end of the music
H:1831
Z:vmp.Cherri Graebe
K:C major
(ef) | (ga).g.e (ga).g.e | (ga).g.e (fd).d.e | (ga).g.e (ga).g.e | (ga).
g.f ec c2 :||:!
.G.c.E.c  .G.c.e.c | .G.c.E.c .d.D .D2 | .G.c.E.c .G.c.e.g | (fa).g.f ec
 c2 :||
